tools/download-figma-icons/icons/outlined-large/campfire.svg

<svg width="64" height="64" viewBox="0 0 64 64" fill="none" xmlns="http://www.w3.org/2000/svg">
<path fill-rule="evenodd" clip-rule="evenodd" d="M41.0138 19.795C38.0585 15.8412 34.4539 11.0189 32.7487 4.12827C22.6588 12.0582 17.7488 20.6691 17.7488 30.3691C17.7488 37.149 21.8488 40.369 25.0387 41.839C24.3487 40.289 23.8187 38.319 23.9787 36.079C24.2387 32.1891 26.4587 28.5681 30.5687 25.3181C30.8387 25.1081 31.1687 24.9991 31.4987 24.9991C31.7697 24.9991 32.0487 25.0681 32.2887 25.2181C32.8287 25.5591 33.0997 26.1891 32.9687 26.8091C32.2287 30.3291 34.0487 31.9791 36.1487 33.879C37.3496 34.968 38.5896 36.099 39.1796 37.599C39.7786 39.149 39.7196 40.649 39.3986 41.909C42.3796 40.449 46.3686 37.209 46.2496 30.3991C46.1796 26.7091 43.9086 23.6691 41.0386 19.8281L41.0138 19.795ZM29.8287 45.189C29.5387 45.75 28.9187 46.0789 28.2787 45.979C28.1487 45.9599 14.7488 43.849 14.7488 30.3691C14.7488 19.0582 20.6688 9.21823 32.8387 0.288298C33.2597 -0.0216998 33.8097 -0.0816994 34.2887 0.108299C34.7697 0.298298 35.1187 0.728294 35.2087 1.24829C36.4887 8.73823 40.1796 13.6782 43.4386 18.0382C46.3896 21.9681 49.1586 25.6791 49.2496 30.3491C49.4751 43.3495 37.2671 45.874 36.774 45.9759C36.7664 45.9775 36.7616 45.9785 36.7597 45.979C36.6797 45.9889 36.5897 46 36.4987 46C35.9697 46 35.4787 45.719 35.2087 45.259C34.8897 44.71 34.9387 44.029 35.3387 43.549C35.3787 43.499 37.3096 41.059 36.3787 38.689C36.0497 37.849 35.1187 36.999 34.1287 36.109L34.0629 36.0486C32.4931 34.6085 30.5208 32.7991 29.9587 29.9491C28.1287 31.9691 27.1287 34.079 26.9687 36.249C26.6787 40.349 29.5487 43.429 29.5787 43.46C30.0197 43.929 30.1187 44.619 29.8287 45.189ZM3.6577 60.7289C3.9787 60.9589 4.3787 61.0489 4.7587 60.9789L23.5296 57.609L14.6986 56.019L4.2487 57.899C3.42871 58.049 2.87871 58.8589 3.01871 59.7089C3.09871 60.1289 3.31871 60.4999 3.6577 60.7289ZM59.2423 48.0187L59.2393 48.019L40.4694 51.389L49.2994 52.979L59.7493 51.099C60.5793 50.949 61.1193 50.139 60.9793 49.29C60.9003 48.869 60.6793 48.5 60.3393 48.269C60.0893 48.089 59.7993 48 59.4993 48C59.4103 48 59.3311 48.0088 59.2423 48.0187ZM40.4694 57.609L59.2393 60.9789C59.6193 61.0489 60.0093 60.9589 60.3393 60.7289C60.6793 60.4999 60.9003 60.1289 60.9793 59.7089C61.1193 58.8589 60.5793 58.049 59.7493 57.899L49.2994 56.019L40.8284 54.5L31.9985 52.91L23.5296 51.389L4.7587 48.019L4.75565 48.0187C4.66689 48.0088 4.58768 48 4.4987 48C4.1977 48 3.9077 48.089 3.6577 48.269C3.31871 48.5 3.09871 48.869 3.01871 49.29C2.87871 50.139 3.41871 50.949 4.2487 51.099L14.6986 52.979L23.1686 54.5L31.9985 56.089L40.4694 57.609ZM57.7793 54.5L60.2793 54.95C62.4593 55.339 63.9992 57.269 63.9992 59.4389C63.9992 59.6999 63.9792 59.9589 63.9292 60.2289C63.7192 61.4389 63.0593 62.4899 62.0593 63.1899C61.2993 63.7189 60.4093 63.9999 59.4993 63.9999C59.2393 63.9999 58.9693 63.9789 58.7093 63.9289L31.9985 59.1289L5.28869 63.9289C5.02869 63.9789 4.7587 63.9999 4.4987 63.9999C3.58871 63.9999 2.69771 63.7189 1.93872 63.1899C0.938725 62.4899 0.27873 61.4389 0.0687321 60.2289C-0.361265 57.759 1.27872 55.389 3.7187 54.95L6.21869 54.5L3.7187 54.049C1.27872 53.609 -0.361265 51.25 0.0687321 48.769C0.27873 47.559 0.938725 46.509 1.93872 45.809C2.92871 45.1191 4.1177 44.8591 5.28869 45.0691L31.9985 49.869L58.7093 45.0691C59.8893 44.8591 61.0793 45.1191 62.0593 45.809C63.0593 46.509 63.7192 47.559 63.9292 48.769C64.3602 51.25 62.7193 53.609 60.2793 54.049L57.7793 54.5Z" fill="black"/>
</svg>

<svg width="64" height="64" viewBox="0 0 64 64" fill="none" xmlns="http://www.w3.org/2000/svg"><path fill-rule="evenodd" clip-rule="evenodd" d="M41.014 19.795c-2.956-3.954-6.56-8.776-8.265-15.667-10.09 7.93-15 16.541-15 26.241 0 6.78 4.1 10 7.29 11.47-.69-1.55-1.22-3.52-1.06-5.76.26-3.89 2.48-7.51 6.59-10.76a1.52 1.52 0 0 1 1.72-.1c.54.34.81.97.68 1.59-.74 3.52 1.08 5.17 3.18 7.07 1.2 1.089 2.44 2.22 3.03 3.72.6 1.55.54 3.05.22 4.31 2.98-1.46 6.97-4.7 6.85-11.51-.07-3.69-2.34-6.73-5.21-10.57l-.025-.034ZM29.829 45.189c-.29.561-.91.89-1.55.79-.13-.02-13.53-2.13-13.53-15.61 0-11.31 5.92-21.15 18.09-30.08.42-.31.97-.37 1.45-.18s.83.62.92 1.14c1.28 7.49 4.97 12.43 8.23 16.79 2.95 3.93 5.72 7.64 5.81 12.31.226 13-11.982 15.525-12.475 15.627l-.014.003a1.496 1.496 0 0 1-1.551-.72 1.493 1.493 0 0 1 .13-1.71c.04-.05 1.97-2.49 1.04-4.86-.33-.84-1.26-1.69-2.25-2.58l-.066-.06c-1.57-1.44-3.542-3.25-4.104-6.1-1.83 2.02-2.83 4.13-2.99 6.3-.29 4.1 2.58 7.18 2.61 7.211.44.469.54 1.159.25 1.729ZM3.658 60.729c.32.23.72.32 1.1.25l18.772-3.37-8.831-1.59-10.45 1.88c-.82.15-1.37.96-1.23 1.81.08.42.3.79.639 1.02Zm55.584-12.71h-.003l-18.77 3.37 8.83 1.59 10.45-1.88c.83-.15 1.37-.96 1.23-1.809-.079-.421-.3-.79-.64-1.021-.25-.18-.54-.269-.84-.269a2.24 2.24 0 0 0-.257.019Zm-18.773 9.59 18.77 3.37c.38.07.77-.02 1.1-.25.34-.23.561-.6.64-1.02.14-.85-.4-1.66-1.23-1.81l-10.45-1.88-8.47-1.519-8.83-1.59-8.47-1.521-18.77-3.37h-.003A2.239 2.239 0 0 0 4.499 48c-.301 0-.591.089-.841.269-.34.231-.56.6-.64 1.021-.14.849.4 1.659 1.23 1.809l10.45 1.88 8.47 1.521 8.83 1.589 8.471 1.52ZM57.78 54.5l2.5.45c2.18.389 3.72 2.319 3.72 4.489 0 .26-.02.52-.07.79a4.524 4.524 0 0 1-1.87 2.96 4.476 4.476 0 0 1-3.35.74L32 59.129l-26.71 4.8a4.473 4.473 0 0 1-3.35-.739c-1-.7-1.66-1.751-1.87-2.961-.43-2.47 1.21-4.84 3.65-5.279l2.5-.45-2.5-.451c-2.44-.44-4.08-2.799-3.65-5.28.21-1.21.87-2.26 1.87-2.96.99-.69 2.179-.95 3.35-.74l26.71 4.8 26.71-4.8c1.18-.21 2.37.05 3.35.74 1 .7 1.66 1.75 1.87 2.96.431 2.481-1.21 4.84-3.65 5.28l-2.5.451Z" fill="currentColor"/></svg>
